lib/brands/icons/adobe-audition.svg

<svg xmlns="http://www.w3.org/2000/svg" fill="none" aria-hidden="true" viewBox="0 0 48 48"><g id="adobe-audition-Icon"><g id="Group"><path id="bg" fill="#00005B" d="M6 19.0286C6 14.4681 6 12.1879 6.88752 10.4461C7.6682 8.9139 8.9139 7.6682 10.4461 6.88752C12.1879 6 14.4681 6 19.0286 6H28.9714C33.5319 6 35.8121 6 37.5539 6.88752C39.0861 7.6682 40.3318 8.9139 41.1125 10.4461C42 12.1879 42 14.4681 42 19.0286V28.9714C42 33.5319 42 35.8121 41.1125 37.5539C40.3318 39.0861 39.0861 40.3318 37.5539 41.1125C35.8121 42 33.5319 42 28.9714 42H19.0286C14.4681 42 12.1879 42 10.4461 41.1125C8.9139 40.3318 7.6682 39.0861 6.88752 37.5539C6 35.8121 6 33.5319 6 28.9714V19.0286Z"/><g id="Vector"><path fill="#9999FF" d="M20.0922 28.9898H14.3908L13.2308 32.6989C13.1986 32.8367 13.0721 32.9343 12.9346 32.9276H10.0469C9.88218 32.9276 9.82459 32.8344 9.87409 32.6481L14.8103 18.0148C14.8597 17.8624 14.9091 17.6887 14.9585 17.4939C15.023 17.155 15.0561 16.8105 15.0572 16.4651C15.0431 16.363 15.1324 16.2729 15.23 16.2872H19.1542C19.2692 16.2872 19.335 16.3296 19.3517 16.4143L24.9544 32.6735C25.0038 32.843 24.9544 32.9277 24.8063 32.9276H21.5977C21.4852 32.9404 21.3777 32.863 21.3509 32.7497L20.0922 28.9898ZM15.2793 25.7887H19.179C18.5383 23.5915 17.8152 21.4232 17.2292 19.2088C16.5969 21.4269 15.907 23.636 15.2793 25.7887Z"/><path fill="#9999FF" d="M36.7308 20.2524V29.9256C36.7308 30.5893 36.7258 31.2589 36.7925 31.9199C36.8172 32.1656 36.8377 32.3127 36.8543 32.4818C36.8704 32.6176 36.813 32.6851 36.6815 32.6851H34.0406C33.9162 32.6986 33.7942 32.6254 33.7444 32.5072C33.6803 32.2731 33.6241 32.0245 33.621 31.7802C32.6784 32.646 31.4328 32.9897 30.1903 32.9996C27.5004 33.0329 25.9834 30.7722 26.0438 28.0964V20.2778C26.0276 20.1611 26.1279 20.0579 26.2413 20.0746H29.1744C29.2877 20.058 29.388 20.1612 29.3719 20.2778V27.6899C29.3719 29.0441 30.0344 29.9256 31.3997 29.9256C32.1177 29.9347 32.8305 29.6396 33.4088 29.2143V20.2524C33.4088 20.1341 33.4828 20.0746 33.631 20.0746H36.5581C36.6572 20.0602 36.7448 20.1504 36.7308 20.2524Z"/></g></g></g></svg>

<svg xmlns="http://www.w3.org/2000/svg" fill="none" aria-hidden="true" viewBox="0 0 48 48"><path fill="#00005B" d="M6 19.029c0-4.56 0-6.841.888-8.583a8.143 8.143 0 0 1 3.558-3.558C12.188 6 14.468 6 19.03 6h9.942c4.56 0 6.841 0 8.583.888a8.143 8.143 0 0 1 3.558 3.558C42 12.188 42 14.468 42 19.03v9.942c0 4.56 0 6.841-.888 8.583a8.143 8.143 0 0 1-3.558 3.558C35.812 42 33.532 42 28.97 42h-9.94c-4.56 0-6.841 0-8.583-.888a8.143 8.143 0 0 1-3.558-3.558C6 35.812 6 33.532 6 28.97v-9.94Z"/><path fill="#99F" d="M20.092 28.99h-5.701l-1.16 3.709a.295.295 0 0 1-.296.229h-2.888c-.165 0-.222-.094-.173-.28l4.937-14.633c.049-.153.098-.326.148-.521a5.59 5.59 0 0 0 .098-1.029c-.014-.102.076-.192.173-.178h3.924c.116 0 .181.043.198.127l5.603 16.26c.049.169 0 .254-.148.254h-3.21a.23.23 0 0 1-.246-.178l-1.259-3.76Zm-4.812-3.201h3.9c-.642-2.198-1.365-4.366-1.95-6.58-.633 2.218-1.323 4.427-1.95 6.58Zm21.451-5.537v9.674c0 .663-.005 1.333.062 1.994.025.246.045.393.062.562.016.136-.042.203-.173.203H34.04a.291.291 0 0 1-.296-.178 2.947 2.947 0 0 1-.124-.727c-.942.866-2.188 1.21-3.43 1.22-2.69.033-4.207-2.228-4.147-4.904v-7.818c-.016-.117.084-.22.197-.203h2.934c.113-.017.213.086.197.203v7.412c0 1.354.663 2.236 2.028 2.236.718.009 1.43-.286 2.009-.712v-8.962c0-.118.074-.177.222-.177h2.927c.1-.015.187.075.173.177Z"/></svg>
